X: 34541
T: Rince Briotánach
R: reel
M: 4/4
K: Gminor
DGGB BGG2|GGGF G2G2|DGGB BGB2|GGGF G2G2|
|:DGGB BGB2|GBd2 dcd2|dffe dedd|
c2 Bd2 dc2|B2 Gc2 cB2|GGGF G2G2:|

